Manual/img/Component/Logic.svg

<?xml version="1.0" encoding="UTF-8" standalone="no"?>
<svg
   xmlns:dc="http://purl.org/dc/elements/1.1/"
   xmlns:cc="http://creativecommons.org/ns#"
   xmlns:rdf="http://www.w3.org/1999/02/22-rdf-syntax-ns#"
   xmlns:svg="http://www.w3.org/2000/svg"
   xmlns="http://www.w3.org/2000/svg"
   xmlns:sodipodi="http://sodipodi.sourceforge.net/DTD/sodipodi-0.dtd"
   xmlns:inkscape="http://www.inkscape.org/namespaces/inkscape"
   version="1.1"
   viewBox="0.0 0.0 348.0 348.0"
   fill="none"
   stroke="none"
   stroke-linecap="square"
   stroke-miterlimit="10"
   id="svg3336"
   inkscape:version="0.91 r13725"
   sodipodi:docname="component_logic.svg">
  <metadata
     id="metadata3359">
    <rdf:RDF>
      <cc:Work
         rdf:about="">
        <dc:format>image/svg+xml</dc:format>
        <dc:type
           rdf:resource="http://purl.org/dc/dcmitype/StillImage" />
      </cc:Work>
    </rdf:RDF>
  </metadata>
  <defs
     id="defs3357" />
  <sodipodi:namedview
     pagecolor="#ffffff"
     bordercolor="#666666"
     borderopacity="1"
     objecttolerance="10"
     gridtolerance="10"
     guidetolerance="10"
     inkscape:pageopacity="0"
     inkscape:pageshadow="2"
     inkscape:window-width="1920"
     inkscape:window-height="1017"
     id="namedview3355"
     showgrid="false"
     inkscape:zoom="2.4195402"
     inkscape:cx="178.54632"
     inkscape:cy="169.86698"
     inkscape:window-x="-8"
     inkscape:window-y="-8"
     inkscape:window-maximized="1"
     inkscape:current-layer="svg3336" />
  <clipPath
     id="p.0">
    <path
       d="m0 0l348.0 0l0 348.0l-348.0 0l0 -348.0z"
       clip-rule="nonzero"
       id="path3339" />
  </clipPath>
  <g
     clip-path="url(#p.0)"
     id="g3341">
    <path
       fill="#000000"
       fill-opacity="0.0"
       d="m0 0l348.0 0l0 348.0l-348.0 0z"
       fill-rule="nonzero"
       id="path3343" />
    <path
       fill="#ffffff"
       d="m-6.0 0l348.0 0l0 347.9685l-348.0 0z"
       fill-rule="nonzero"
       id="path3345" />
    <path
       fill="#000000"
       fill-opacity="0.0"
       d="m5.07874 5.7758217l336.9134 0l0 337.6693l-336.9134 0z"
       fill-rule="nonzero"
       id="path3347" />
    <path
       stroke="#000000"
       stroke-width="2.0"
       stroke-linejoin="round"
       stroke-linecap="butt"
       d="m5.07874 5.7758217l336.9134 0l0 337.6693l-336.9134 0z"
       fill-rule="nonzero"
       id="path3349" />
    <path
       fill="#ffffff"
       d="m282.73444 40.553925l0 0c0 -8.375591 6.966034 -15.165352 15.5590515 -15.165352l0 0c4.126526 0 8.084015 1.5977726 11.001923 4.441828c2.9178772 2.844057 4.557129 6.7014217 4.557129 10.723524l0 0c0 8.375595 -6.9660034 15.165356 -15.5590515 15.165356l0 0c-8.593018 0 -15.5590515 -6.7897606 -15.5590515 -15.165356z"
       fill-rule="nonzero"
       id="path3351" />
    <path
       stroke="#000000"
       stroke-width="2.0"
       stroke-linejoin="round"
       stroke-linecap="butt"
       d="m282.73444 40.553925l0 0c0 -8.375591 6.966034 -15.165352 15.5590515 -15.165352l0 0c4.126526 0 8.084015 1.5977726 11.001923 4.441828c2.9178772 2.844057 4.557129 6.7014217 4.557129 10.723524l0 0c0 8.375595 -6.9660034 15.165356 -15.5590515 15.165356l0 0c-8.593018 0 -15.5590515 -6.7897606 -15.5590515 -15.165356z"
       fill-rule="nonzero"
       id="path3353" />
  </g>
  <rect
     style="fill:#ffffff;fill-rule:evenodd;stroke:#000000;stroke-width:1px;stroke-linecap:butt;stroke-linejoin:miter;stroke-opacity:1"
     id="rect3361"
     width="48.769596"
     height="47.942993"
     x="27.27791"
     y="105.39192" />
  <rect
     style="fill:#ffffff;fill-rule:evenodd;stroke:#000000;stroke-width:1px;stroke-linecap:butt;stroke-linejoin:miter;stroke-opacity:1"
     id="rect3361-9"
     width="48.769596"
     height="47.942993"
     x="114.48457"
     y="105.39192" />
  <rect
     style="fill:#ffffff;fill-rule:evenodd;stroke:#000000;stroke-width:1px;stroke-linecap:butt;stroke-linejoin:miter;stroke-opacity:1"
     id="rect3361-1"
     width="48.769596"
     height="47.942993"
     x="198.7981"
     y="106.21853" />
  <rect
     style="fill:#ffffff;fill-rule:evenodd;stroke:#000000;stroke-width:1px;stroke-linecap:butt;stroke-linejoin:miter;stroke-opacity:1"
     id="rect3361-6"
     width="48.769596"
     height="47.942993"
     x="273.19241"
     y="106.21852" />
  <rect
     style="fill:#ffffff;fill-rule:evenodd;stroke:#000000;stroke-width:1px;stroke-linecap:butt;stroke-linejoin:miter;stroke-opacity:1"
     id="rect3361-0"
     width="48.769596"
     height="47.942993"
     x="28.104515"
     y="202.93112" />
  <rect
     style="fill:#ffffff;fill-rule:evenodd;stroke:#000000;stroke-width:1px;stroke-linecap:butt;stroke-linejoin:miter;stroke-opacity:1"
     id="rect3361-4"
     width="48.769596"
     height="47.942993"
     x="114.89786"
     y="203.34442" />
  <rect
     style="fill:#ffffff;fill-rule:evenodd;stroke:#000000;stroke-width:1px;stroke-linecap:butt;stroke-linejoin:miter;stroke-opacity:1"
     id="rect3361-91"
     width="48.769596"
     height="47.942993"
     x="200.45131"
     y="202.93111" />
  <rect
     style="fill:#ffffff;fill-rule:evenodd;stroke:#000000;stroke-width:1px;stroke-linecap:butt;stroke-linejoin:miter;stroke-opacity:1"
     id="rect3361-8"
     width="48.769596"
     height="47.942993"
     x="273.19238"
     y="202.51781" />
  <rect
     style="fill:#ffffff;fill-rule:evenodd;stroke:#000000;stroke-width:1.14541996px;stroke-linecap:butt;stroke-linejoin:miter;stroke-opacity:1"
     id="rect3361-0-6"
     width="103.5933"
     height="29.612301"
     x="128.19623"
     y="283.59766" />
  <text
     xml:space="preserve"
     style="font-style:normal;font-weight:normal;font-size:40px;line-height:125%;font-family:sans-serif;letter-spacing:0px;word-spacing:0px;fill:#000000;fill-opacity:1;stroke:none;stroke-width:1px;stroke-linecap:butt;stroke-linejoin:miter;stroke-opacity:1"
     x="81.007126"
     y="143.41568"
     id="text3431"
     sodipodi:linespacing="125%"><tspan
       sodipodi:role="line"
       id="tspan3433"
       x="81.007126"
       y="143.41568">∩</tspan></text>
  <text
     xml:space="preserve"
     style="font-style:normal;font-weight:normal;font-size:40px;line-height:125%;font-family:sans-serif;letter-spacing:0px;word-spacing:0px;fill:#000000;fill-opacity:1;stroke:none;stroke-width:1px;stroke-linecap:butt;stroke-linejoin:miter;stroke-opacity:1"
     x="167.05467"
     y="143.52043"
     id="text3431-3"
     sodipodi:linespacing="125%"><tspan
       sodipodi:role="line"
       id="tspan3433-4"
       x="167.05467"
       y="143.52043">∩</tspan></text>
  <text
     xml:space="preserve"
     style="font-style:normal;font-weight:normal;font-size:40px;line-height:125%;font-family:sans-serif;letter-spacing:0px;word-spacing:0px;fill:#000000;fill-opacity:1;stroke:none;stroke-width:1px;stroke-linecap:butt;stroke-linejoin:miter;stroke-opacity:1"
     x="284.35153"
     y="145.06889"
     id="text3475"
     sodipodi:linespacing="125%"><tspan
       sodipodi:role="line"
       id="tspan3477"
       x="284.35153"
       y="145.06889">F</tspan></text>
  <text
     xml:space="preserve"
     style="font-style:normal;font-weight:normal;font-size:40px;line-height:125%;font-family:sans-serif;letter-spacing:0px;word-spacing:0px;fill:#000000;fill-opacity:1;stroke:none;stroke-width:1px;stroke-linecap:butt;stroke-linejoin:miter;stroke-opacity:1"
     x="285.21042"
     y="242.27023"
     id="text3475-7"
     sodipodi:linespacing="125%"><tspan
       sodipodi:role="line"
       id="tspan3477-9"
       x="285.21042"
       y="242.27023">F</tspan></text>
  <text
     xml:space="preserve"
     style="font-style:normal;font-weight:normal;font-size:40px;line-height:125%;font-family:sans-serif;letter-spacing:0px;word-spacing:0px;fill:#000000;fill-opacity:1;stroke:none;stroke-width:1px;stroke-linecap:butt;stroke-linejoin:miter;stroke-opacity:1"
     x="129.77672"
     y="307.90973"
     id="text3497"
     sodipodi:linespacing="125%"><tspan
       sodipodi:role="line"
       id="tspan3499"
       x="129.77672"
       y="307.90973"
       style="font-size:25px">SUBMIT</tspan></text>
  <text
     xml:space="preserve"
     style="font-style:normal;font-weight:normal;font-size:40px;line-height:125%;font-family:sans-serif;letter-spacing:0px;word-spacing:0px;fill:#000000;fill-opacity:1;stroke:none;stroke-width:1px;stroke-linecap:butt;stroke-linejoin:miter;stroke-opacity:1"
     x="81.007133"
     y="240.95486"
     id="text3372"
     sodipodi:linespacing="125%"><tspan
       sodipodi:role="line"
       id="tspan3374"
       x="81.007133"
       y="240.95486">U</tspan></text>
  <text
     xml:space="preserve"
     style="font-style:normal;font-weight:normal;font-size:40px;line-height:125%;font-family:sans-serif;letter-spacing:0px;word-spacing:0px;fill:#000000;fill-opacity:1;stroke:none;stroke-width:1px;stroke-linecap:butt;stroke-linejoin:miter;stroke-opacity:1"
     x="167.62737"
     y="240.3143"
     id="text3372-4"
     sodipodi:linespacing="125%"><tspan
       sodipodi:role="line"
       id="tspan3374-1"
       x="167.62737"
       y="240.3143">U</tspan></text>
</svg>

<?xml version="1.0" encoding="UTF-8" standalone="no"?>
<svg
   xmlns:dc="http://purl.org/dc/elements/1.1/"
   xmlns:cc="http://creativecommons.org/ns#"
   xmlns:rdf="http://www.w3.org/1999/02/22-rdf-syntax-ns#"
   xmlns:svg="http://www.w3.org/2000/svg"
   xmlns="http://www.w3.org/2000/svg"
   xmlns:sodipodi="http://sodipodi.sourceforge.net/DTD/sodipodi-0.dtd"
   xmlns:inkscape="http://www.inkscape.org/namespaces/inkscape"
   version="1.1"
   viewBox="0 0 348 348"
   stroke-miterlimit="10"
   id="svg3336"
   inkscape:version="0.92.1 r15371"
   sodipodi:docname="Logic.svg"
   width="371.20001"
   height="371.20001"
   style="fill:none;stroke:none;stroke-linecap:square;stroke-miterlimit:10">
  <metadata
     id="metadata3359">
    <rdf:RDF>
      <cc:Work
         rdf:about="">
        <dc:format>image/svg+xml</dc:format>
        <dc:type
           rdf:resource="http://purl.org/dc/dcmitype/StillImage" />
      </cc:Work>
    </rdf:RDF>
  </metadata>
  <defs
     id="defs3357" />
  <sodipodi:namedview
     pagecolor="#ffffff"
     bordercolor="#666666"
     borderopacity="1"
     objecttolerance="10"
     gridtolerance="10"
     guidetolerance="10"
     inkscape:pageopacity="0"
     inkscape:pageshadow="2"
     inkscape:window-width="1366"
     inkscape:window-height="705"
     id="namedview3355"
     showgrid="false"
     inkscape:zoom="2.4195402"
     inkscape:cx="178.54632"
     inkscape:cy="202.93111"
     inkscape:window-x="-8"
     inkscape:window-y="-8"
     inkscape:window-maximized="1"
     inkscape:current-layer="svg3336" />
  <clipPath
     id="p.0">
    <path
       d="M 0,0 H 348 V 348 H 0 Z"
       id="path3339"
       inkscape:connector-curvature="0"
       style="clip-rule:nonzero" />
  </clipPath>
  <g
     clip-path="url(#p.0)"
     id="g3341">
    <path
       d="M 0,0 H 348 V 348 H 0 Z"
       id="path3343"
       inkscape:connector-curvature="0"
       style="fill:#000000;fill-opacity:0;fill-rule:nonzero" />
    <path
       d="M -6,0 H 342 V 347.9685 H -6 Z"
       id="path3345"
       inkscape:connector-curvature="0"
       style="fill:#ffffff;fill-rule:nonzero" />
    <path
       d="m 5.07874,5.7758217 h 336.9134 V 343.44512 H 5.07874 Z"
       id="path3347"
       inkscape:connector-curvature="0"
       style="fill:#000000;fill-opacity:0;fill-rule:nonzero" />
    <path
       d="m 5.07874,5.7758217 h 336.9134 V 343.44512 H 5.07874 Z"
       id="path3349"
       inkscape:connector-curvature="0"
       style="fill-rule:nonzero;stroke:#000000;stroke-width:2;stroke-linecap:butt;stroke-linejoin:round" />
    <path
       d="m 282.73444,40.553925 v 0 c 0,-8.375591 6.96603,-15.165352 15.55905,-15.165352 v 0 c 4.12653,0 8.08402,1.597773 11.00192,4.441828 2.91788,2.844057 4.55713,6.701422 4.55713,10.723524 v 0 c 0,8.375595 -6.966,15.165356 -15.55905,15.165356 v 0 c -8.59302,0 -15.55905,-6.789761 -15.55905,-15.165356 z"
       id="path3351"
       inkscape:connector-curvature="0"
       style="fill:#ffffff;fill-rule:nonzero" />
    <path
       d="m 282.73444,40.553925 v 0 c 0,-8.375591 6.96603,-15.165352 15.55905,-15.165352 v 0 c 4.12653,0 8.08402,1.597773 11.00192,4.441828 2.91788,2.844057 4.55713,6.701422 4.55713,10.723524 v 0 c 0,8.375595 -6.966,15.165356 -15.55905,15.165356 v 0 c -8.59302,0 -15.55905,-6.789761 -15.55905,-15.165356 z"
       id="path3353"
       inkscape:connector-curvature="0"
       style="fill-rule:nonzero;stroke:#000000;stroke-width:2;stroke-linecap:butt;stroke-linejoin:round" />
  </g>
  <rect
     style="fill:#ffffff;fill-rule:evenodd;stroke:#000000;stroke-width:1px;stroke-linecap:butt;stroke-linejoin:miter;stroke-opacity:1"
     id="rect3361"
     width="48.769596"
     height="47.942993"
     x="27.27791"
     y="105.39192" />
  <rect
     style="fill:#ffffff;fill-rule:evenodd;stroke:#000000;stroke-width:1px;stroke-linecap:butt;stroke-linejoin:miter;stroke-opacity:1"
     id="rect3361-9"
     width="48.769596"
     height="47.942993"
     x="114.48457"
     y="105.39192" />
  <rect
     style="fill:#ffffff;fill-rule:evenodd;stroke:#000000;stroke-width:1px;stroke-linecap:butt;stroke-linejoin:miter;stroke-opacity:1"
     id="rect3361-1"
     width="48.769596"
     height="47.942993"
     x="198.7981"
     y="106.21853" />
  <rect
     style="fill:#ffffff;fill-rule:evenodd;stroke:#000000;stroke-width:1px;stroke-linecap:butt;stroke-linejoin:miter;stroke-opacity:1"
     id="rect3361-6"
     width="48.769596"
     height="47.942993"
     x="273.19241"
     y="106.21852" />
  <rect
     style="fill:#ffffff;fill-rule:evenodd;stroke:#000000;stroke-width:1px;stroke-linecap:butt;stroke-linejoin:miter;stroke-opacity:1"
     id="rect3361-0"
     width="48.769596"
     height="47.942993"
     x="28.104515"
     y="202.93112" />
  <rect
     style="fill:#ffffff;fill-rule:evenodd;stroke:#000000;stroke-width:1px;stroke-linecap:butt;stroke-linejoin:miter;stroke-opacity:1"
     id="rect3361-4"
     width="48.769596"
     height="47.942993"
     x="114.89786"
     y="203.34442" />
  <rect
     style="fill:#ffffff;fill-rule:evenodd;stroke:#000000;stroke-width:1px;stroke-linecap:butt;stroke-linejoin:miter;stroke-opacity:1"
     id="rect3361-91"
     width="48.769596"
     height="47.942993"
     x="200.45131"
     y="202.93111" />
  <rect
     style="fill:#ffffff;fill-rule:evenodd;stroke:#000000;stroke-width:1px;stroke-linecap:butt;stroke-linejoin:miter;stroke-opacity:1"
     id="rect3361-8"
     width="48.769596"
     height="47.942993"
     x="273.19238"
     y="202.51781" />
  <rect
     style="fill:#ffffff;fill-rule:evenodd;stroke:#000000;stroke-width:1.14541996px;stroke-linecap:butt;stroke-linejoin:miter;stroke-opacity:1"
     id="rect3361-0-6"
     width="103.5933"
     height="29.612301"
     x="128.19623"
     y="283.59766" />
  <text
     xml:space="preserve"
     style="font-style:normal;font-weight:normal;line-height:0%;font-family:sans-serif;letter-spacing:0px;word-spacing:0px;fill:#000000;fill-opacity:1;stroke:none;stroke-width:1px;stroke-linecap:butt;stroke-linejoin:miter;stroke-opacity:1"
     x="284.35153"
     y="145.06889"
     id="text3475"><tspan
       sodipodi:role="line"
       id="tspan3477"
       x="284.35153"
       y="145.06889"
       style="font-size:40px;line-height:1.25">F</tspan></text>
  <text
     xml:space="preserve"
     style="font-style:normal;font-weight:normal;line-height:0%;font-family:sans-serif;letter-spacing:0px;word-spacing:0px;fill:#000000;fill-opacity:1;stroke:none;stroke-width:1px;stroke-linecap:butt;stroke-linejoin:miter;stroke-opacity:1"
     x="285.21042"
     y="242.27023"
     id="text3475-7"><tspan
       sodipodi:role="line"
       id="tspan3477-9"
       x="285.21042"
       y="242.27023"
       style="font-size:40px;line-height:1.25">F</tspan></text>
  <text
     xml:space="preserve"
     style="font-style:normal;font-weight:normal;line-height:0%;font-family:sans-serif;letter-spacing:0px;word-spacing:0px;fill:#000000;fill-opacity:1;stroke:none;stroke-width:1px;stroke-linecap:butt;stroke-linejoin:miter;stroke-opacity:1"
     x="129.77672"
     y="307.90973"
     id="text3497"><tspan
       sodipodi:role="line"
       id="tspan3499"
       x="129.77672"
       y="307.90973"
       style="font-size:25px;line-height:1.25">SUBMIT</tspan></text>
  <text
     xml:space="preserve"
     style="font-style:normal;font-weight:normal;font-size:45.77187729px;line-height:42.91113663px;font-family:sans-serif;letter-spacing:0px;word-spacing:0px;fill:#000000;fill-opacity:1;stroke:none;stroke-width:1.71644545px;stroke-linecap:butt;stroke-linejoin:miter;stroke-opacity:1"
     x="79.177711"
     y="140.5674"
     id="text48"
     transform="scale(0.9854646,1.0147498)"><tspan
       sodipodi:role="line"
       id="tspan46"
       x="79.177711"
       y="140.5674"
       style="stroke-width:1.71644545px">∨</tspan></text>
  <text
     xml:space="preserve"
     style="font-style:normal;font-weight:normal;font-size:45.77187729px;line-height:42.91113663px;font-family:sans-serif;letter-spacing:0px;word-spacing:0px;fill:#000000;fill-opacity:1;stroke:none;stroke-width:1.71644545px;stroke-linecap:butt;stroke-linejoin:miter;stroke-miterlimit:10;stroke-opacity:1"
     x="166.21143"
     y="239.71194"
     id="text48-5"
     transform="scale(0.9854646,1.0147498)"><tspan
       sodipodi:role="line"
       id="tspan46-1"
       x="166.21143"
       y="239.71194"
       style="stroke-width:1.71644545px">∨</tspan></text>
  <text
     xml:space="preserve"
     style="font-style:normal;font-weight:normal;font-size:48.02795029px;line-height:45.02620697px;font-family:sans-serif;letter-spacing:0px;word-spacing:0px;fill:#000000;fill-opacity:1;stroke:none;stroke-width:1.80104804px;stroke-linecap:butt;stroke-linejoin:miter;stroke-opacity:1"
     x="70.483223"
     y="257.90833"
     id="text74"
     transform="scale(1.0647663,0.93917324)"><tspan
       sodipodi:role="line"
       id="tspan72"
       x="70.483223"
       y="257.90833"
       style="stroke-width:1.80104804px">∧</tspan></text>
  <text
     xml:space="preserve"
     style="font-style:normal;font-weight:normal;font-size:48.02795029px;line-height:45.02620697px;font-family:sans-serif;letter-spacing:0px;word-spacing:0px;fill:#000000;fill-opacity:1;stroke:none;stroke-width:1.80104804px;stroke-linecap:butt;stroke-linejoin:miter;stroke-miterlimit:10;stroke-opacity:1"
     x="151.94458"
     y="150.49721"
     id="text74-8"
     transform="scale(1.0647663,0.93917322)"><tspan
       sodipodi:role="line"
       id="tspan72-0"
       x="151.94458"
       y="150.49721"
       style="stroke-width:1.80104804px">∧</tspan></text>
</svg>
